svg/ods.svg

<?xml version="1.0" encoding="UTF-8"?>
<svg xmlns="http://www.w3.org/2000/svg" xmlns:xlink="http://www.w3.org/1999/xlink" width="32" height="32" viewBox="0 0 32 32">
<rect x="-3.2" y="-3.2" width="38.4" height="38.4" fill="rgb(100%, 100%, 100%)" fill-opacity="1"/>
<path fill-rule="nonzero" fill="rgb(0%, 0%, 0%)" fill-opacity="1" d="M 32 32 L 0 32 L 0 0 L 32 0 Z M 3.105469 28.800781 L 28.929688 28.800781 L 28.929688 3.199219 L 3.105469 3.199219 M 19.96875 10.878906 L 24.480469 10.878906 L 24.480469 13.886719 L 19.96875 13.886719 Z M 19.96875 15.519531 L 24.480469 15.519531 L 24.480469 18.527344 L 19.96875 18.527344 Z M 19.96875 20.097656 L 24.480469 20.097656 L 24.480469 23.105469 L 19.96875 23.105469 Z M 13.855469 20.097656 L 18.367188 20.097656 L 18.367188 23.105469 L 13.855469 23.105469 Z M 7.742188 20.097656 L 12.257812 20.097656 L 12.257812 23.105469 L 7.742188 23.105469 Z M 15.617188 8.894531 L 16.257812 8.894531 C 17.097656 8.949219 17.921875 9.15625 18.6875 9.503906 C 20.097656 8.863281 22.082031 9.34375 23.359375 9.824219 C 21.761719 9.664062 19.871094 9.824219 18.785156 10.464844 C 17.664062 9.566406 15.585938 9.3125 13.632812 9.566406 C 14.175781 9.183594 14.847656 8.960938 15.617188 8.894531 M 15.199219 11.296875 C 14.046875 11.359375 13.121094 11.742188 12.511719 12.257812 C 10.625 11.390625 7.359375 11.777344 6.144531 12.929688 C 6.046875 12.992188 5.917969 13.085938 5.953125 13.183594 C 7.039062 12.863281 8.320312 12.574219 9.664062 12.703125 C 11.007812 12.800781 12 13.246094 12.734375 13.855469 C 14.113281 12.640625 16.128906 11.9375 18.6875 11.96875 C 17.59375 11.476562 16.398438 11.246094 15.199219 11.296875 M 13.886719 15.550781 L 18.398438 15.550781 L 18.398438 18.558594 L 13.886719 18.558594 Z M 7.777344 15.550781 L 12.289062 15.550781 L 12.289062 18.558594 L 7.777344 18.558594 Z M 7.777344 15.550781 "/>
</svg>

<svg role="img" viewBox="0 0 32 32" xmlns="http://www.w3.org/2000/svg"><path d="M-3.2-3.2h38.4v38.4H-3.2z" fill="rgb(100%, 100%, 100%)"/><path d="M32 32H0V0h32ZM3.105 28.8H28.93V3.2H3.105m16.864 7.679h4.511v3.008h-4.51Zm0 4.64h4.511v3.008h-4.51Zm0 4.579h4.511v3.007h-4.51Zm-6.114 0h4.512v3.007h-4.512Zm-6.113 0h4.516v3.007H7.742Zm7.875-11.203h.64a7 7 0 0 1 2.43.609c1.41-.64 3.395-.16 4.672.32-1.597-.16-3.488 0-4.574.64-1.12-.898-3.2-1.152-5.152-.898.543-.382 1.215-.605 1.984-.671m-.418 2.402c-1.152.062-2.078.445-2.687.96-1.887-.866-5.153-.48-6.367.673-.098.062-.227.156-.192.254 1.086-.32 2.367-.61 3.711-.48 1.344.097 2.336.542 3.07 1.151 1.38-1.214 3.395-1.918 5.954-1.886a7.74 7.74 0 0 0-3.489-.672m-1.312 4.254h4.511v3.008h-4.511Zm-6.11 0h4.512v3.008H7.777Zm0 0"/></svg>
